;Generated by Cura LulzBot Edition GCodeWriter Version: 3.6.37
;Generated by Cura LulzBot Edition GCodeWriter Version: 3.6.37
;FLAVOR:Marlin
;TIME:1839
;Filament used: 0.359264m
;Layer height: 0.25
;Generated with Cura_SteamEngine 3.6.37-macos
M82 ;absolute extrusion mode
;This G-Code has been generated specifically for the LulzBot Mini 2 with SE 0.5mm Tool Head
;
;The following lines can be uncommented for printer specific fine tuning
;More information can be found at https://marlinfw.org/meta/gcode/
;
;M92 E420                 ;Set Axis Steps-per-unit
;M301 P21.0 I1.78 D61.93  ;Set Hotend PID
;M906 E960                ;TMC Motor Current
;
M73 P0                  ; clear GLCD progress bar
M75 					; Start GLCD Print Timer
G26 					; clear potential 'probe fail' condition
M107 					; disable fans
M420 S0                 ; disable leveling matrix
G90 					; absolute positioning
M82 					; set extruder to absolute mode
G92 E0 					; set extruder position to 0
M140 S60.0 ; start bed heating up
G28 					; home all axes
G0 X0 Y187 Z156 F200 			; move away from endstops
M117 Mini 2 Wiping...			; progress indicator message on LCD
M109 R140 	; soften filament before retraction
G1 E-15 F75 				; retract filament
M109 R140                  ; wait for extruder to reach wiping temp
;M206 X0 Y0 Z0              ; uncomment to adjust wipe position (+X ~ nozzle moves left)(+Y ~ nozzle moves forward)(+Z ~ nozzle moves down)
G12                         ; wiping sequence
M206 X0 Y0 Z0               ; reseting stock nozzle position ### CAUTION: changing this line can affect print quality ###
G28 X0 Y0				; home X and Y
M109 R140	; wait for extruder to reach probe temp
M204 S300				; set probing acceleration
G29					; start auto-leveling sequence
M420 S1                     ; enable leveling matrix
M425 Z			     		; use measured Z backlash for compensation
M425 Z F0		     		; turn off measured Z backlash compensation. (if activated in the quality settings, this command will automatically be ignored)
M204 S2000				; restore standard acceleration
G1 X5 Y15 Z10 F5000			; move up off last probe point
G4 S1					; pause
M400					; wait for moves to finish
M117 Heating...				; progress indicator message on LCD
M109 R210 ; wait for extruder to reach initial printing temp
M190 R60.0 ; wait for bed to reach printing temp
G1 Z2 E0 F75				; prime tiny bit of filament into the nozzle
M117 Mini 2 Printing...		; progress indicator message on LCD

M221 S100 T0
G92 E0
G1 F600 E-1.75
;LAYER_COUNT:44
;LAYER:0
M107
G0 F2625 X73.428 Y48.969 Z0.425
;TYPE:SKIRT
G1 F600 E0
G1 F900 X73.759 Y48.533 E0.01823
G1 X74.15 Y48.15 E0.03647
G1 X74.593 Y47.828 E0.05471
G1 X75.078 Y47.574 E0.07295
G1 X75.594 Y47.393 E0.09116
G1 X76.132 Y47.29 E0.10941
G1 X76.569 Y47.264 E0.12399
G1 X85.421 Y47.26 E0.41885
G1 X85.967 Y47.3 E0.43709
G1 X86.502 Y47.418 E0.45534
G1 X87.013 Y47.614 E0.47357
G1 X87.49 Y47.881 E0.49178
G1 X87.924 Y48.216 E0.51004
G1 X88.304 Y48.609 E0.52825
G1 X88.623 Y49.054 E0.54649
G1 X88.873 Y49.541 E0.56472
G1 X89.05 Y50.059 E0.58296
G1 X89.125 Y50.413 E0.59501
G1 X89.233 Y51.083 E0.61762
G1 X89.281 Y51.679 E0.63753
G1 X89.3 Y109.542 E2.56497
G1 X89.287 Y109.856 E2.57544
G1 X89.166 Y111.299 E2.62368
G1 X89.08 Y111.84 E2.64192
G1 X88.917 Y112.362 E2.66014
G1 X88.68 Y112.856 E2.67839
G1 X88.373 Y113.309 E2.69662
G1 X88.003 Y113.713 E2.71487
G1 X87.579 Y114.058 E2.73308
G1 X87.109 Y114.339 E2.75132
G1 X86.603 Y114.548 E2.76955
G1 X86.072 Y114.68 E2.78778
G1 X85.421 Y114.736 E2.80954
G1 X76.585 Y114.718 E3.10387
G1 X76.04 Y114.677 E3.12208
G1 X75.506 Y114.557 E3.14031
G1 X74.995 Y114.36 E3.15855
G1 X74.518 Y114.092 E3.17678
G1 X74.085 Y113.756 E3.19504
G1 X73.706 Y113.361 E3.21327
G1 X73.388 Y112.916 E3.23149
G1 X73.139 Y112.428 E3.24974
G1 X72.924 Y111.741 E3.27372
G1 X72.825 Y111.271 E3.28972
G1 X72.744 Y110.5 E3.31554
G1 X72.709 Y51.819 E5.27023
G1 X72.745 Y51.299 E5.28759
G1 X72.857 Y50.496 E5.3146
G1 X72.972 Y49.961 E5.33282
G1 X73.164 Y49.448 E5.35107
G1 X73.428 Y48.969 E5.36929
G0 F2625 X73.906 Y49.154
G1 F900 X74.229 Y48.76 E5.38626
G1 X74.61 Y48.422 E5.40322
G1 X75.04 Y48.147 E5.42023
G1 X75.507 Y47.943 E5.4372
G1 X76 Y47.815 E5.45417
G1 X76.57 Y47.764 E5.47323
G1 X85.422 Y47.76 E5.76809
G1 X85.929 Y47.8 E5.78504
G1 X86.425 Y47.918 E5.80202
G1 X86.896 Y48.113 E5.819
G1 X87.331 Y48.379 E5.83598
G1 X87.718 Y48.709 E5.85293
G1 X88.05 Y49.096 E5.86991
G1 X88.317 Y49.53 E5.88688
G1 X88.512 Y50.001 E5.90386
G1 X88.632 Y50.493 E5.92073
G1 X88.74 Y51.163 E5.94334
G1 X88.781 Y51.679 E5.96058
G1 X88.8 Y109.542 E7.88802
G1 X88.789 Y109.815 E7.89712
G1 X88.668 Y111.258 E7.94536
G1 X88.585 Y111.76 E7.9623
G1 X88.426 Y112.244 E7.97927
G1 X88.192 Y112.697 E7.99626
G1 X87.891 Y113.108 E8.01323
G1 X87.529 Y113.467 E8.03021
G1 X87.115 Y113.764 E8.04718
G1 X86.66 Y113.994 E8.06417
G1 X86.175 Y114.149 E8.08113
G1 X85.422 Y114.236 E8.10638
G1 X76.586 Y114.218 E8.40071
G1 X76.079 Y114.177 E8.41765
G1 X75.583 Y114.057 E8.43465
G1 X75.113 Y113.861 E8.45161
G1 X74.679 Y113.595 E8.46857
G1 X74.292 Y113.263 E8.48555
G1 X73.961 Y112.875 E8.50254
G1 X73.696 Y112.441 E8.51948
G1 X73.501 Y111.97 E8.53646
G1 X73.413 Y111.638 E8.5479
G1 X73.314 Y111.168 E8.5639
G1 X73.244 Y110.5 E8.58627
G1 X73.209 Y51.819 E10.54096
G1 X73.24 Y51.368 E10.55602
G1 X73.352 Y50.565 E10.58302
G1 X73.462 Y50.067 E10.60001
G1 X73.648 Y49.593 E10.61697
G1 X73.906 Y49.154 E10.63394
G1 F600 E8.88394
;MESH:
G0 F2625 X75.808 Y51.549
G0 X77.221 Y51.765
G0 X77.419 Y51.85
G0 X77.419 Y51.75
;TYPE:WALL-INNER
G1 F600 E10.63394
G1 F900 X77.415 Y51.78 E10.63494
G1 X77.407 Y51.835 E10.63679
G1 X77.2 Y53.193 E10.68255
G1 X77.2 Y51.804 E10.69254
G1 X77.208 Y51.75 E10.69328
G1 X77.419 Y51.75 E10.69748
G1 X84.581 Y51.75 E10.93605
G1 X84.792 Y51.75 E10.94308
G1 X84.8 Y51.804 E10.9449
G1 X84.8 Y53.193 E10.99117
G1 X84.595 Y51.836 E11.00051
G1 X84.586 Y51.781
G1 X84.581 Y51.75
G1 X77.419 Y51.75
G0 F2625 X77.419 Y51.85
G0 X77.414 Y110.15
G0 X77.414 Y110.22
G1 F900 X77.419 Y110.25 E11.00152
G1 X77.208 Y110.25 E11.00568
G1 X77.2 Y110.196 E11.00749
G1 X77.2 Y108.807 E11.05376
G1 X77.406 Y110.164 E11.06315
G1 X77.414 Y110.22
G0 F2625 X77.414 Y110.15
G0 X84.7 Y110.196
G0 X84.8 Y110.196
G1 F900 X84.792 Y110.25 E11.06497
G1 X84.581 Y110.25 E11.072
G1 X84.585 Y110.221
G1 X84.593 Y110.165
G1 X84.8 Y108.807 E11.11776
G1 X84.8 Y110.196 E11.12774
G0 F2625 X84.7 Y110.196
G0 X84.339 Y53.228
G0 X84.476 Y51.871
G0 X77.784 Y52.175
G0 X77.849 Y52.25
;TYPE:WALL-OUTER
G1 F900 X77.7 Y53.231 E11.1608
G1 X77.7 Y108.769 E13.01079
G1 X77.849 Y109.75 E13.04384
G1 X84.151 Y109.75 E13.25376
G1 X84.3 Y108.769 E13.28681
G1 X84.3 Y53.231 E15.13681
G1 X84.151 Y52.25 E15.16986
G1 X77.849 Y52.25 E15.37978
G0 F2625 X77.812 Y52.497
G0 X77.812 Y52.165
G0 X84.701 Y51.809
G0 X85.3 Y51.768
G1 F900 X85.3 Y110.232 E17.32724
G1 X85.221 Y110.75 E17.34469
G1 X76.779 Y110.75 E17.6259
G1 X76.7 Y110.232 E17.64335
G1 X76.7 Y51.768 E19.59081
G1 X76.779 Y51.25 E19.60826
G1 X85.221 Y51.25 E19.88947
G1 X85.3 Y51.768 E19.90692
G0 F2625 X85.3 Y52.018
G0 X84.366 Y51.839
;TYPE:SKIN
G1 F900 X84.017 Y51.49 E19.91514
G0 F2625 X83.663 Y51.49
G1 F900 X84.183 Y52.009 E19.92738
G0 F2625 X84.538 Y53.426
G1 F900 X85.059 Y53.947 E19.93965
G0 F2625 X85.059 Y54.3
G1 F900 X84.538 Y53.779 E19.95192
G0 F2625 X84.879 Y53.413
G1 F900 X85.059 Y53.593 E19.95616
G0 F2625 X84.538 Y54.133
G1 F900 X85.059 Y54.654 E19.96843
G0 F2625 X85.059 Y55.007
G1 F900 X84.538 Y54.486 E19.98071
G0 F2625 X84.538 Y54.84
G1 F900 X85.059 Y55.361 E19.99298
G0 F2625 X85.059 Y55.715
G1 F900 X84.538 Y55.193 E20.00526
G0 F2625 X84.538 Y55.547
G1 F900 X85.059 Y56.068 E20.01753
G0 F2625 X85.059 Y56.422
G1 F900 X84.538 Y55.901 E20.0298
G0 F2625 X84.538 Y56.254
G1 F900 X85.059 Y56.775 E20.04208
G0 F2625 X85.059 Y57.129
G1 F900 X84.538 Y56.608 E20.05435
G0 F2625 X84.538 Y56.961
G1 F900 X85.059 Y57.482 E20.06662
G0 F2625 X85.059 Y57.836
G1 F900 X84.538 Y57.315 E20.07889
G0 F2625 X84.538 Y57.668
G1 F900 X85.059 Y58.189 E20.09116
G0 F2625 X85.059 Y58.543
G1 F900 X84.538 Y58.022 E20.10343
G0 F2625 X84.538 Y58.375
G1 F900 X85.059 Y58.897 E20.11572
G0 F2625 X85.059 Y59.25
G1 F900 X84.538 Y58.729 E20.12799
G0 F2625 X84.538 Y59.083
G1 F900 X85.059 Y59.604 E20.14026
G0 F2625 X85.059 Y59.957
G1 F900 X84.538 Y59.436 E20.15253
G0 F2625 X84.538 Y59.79
G1 F900 X85.059 Y60.311 E20.1648
G0 F2625 X85.059 Y60.664
G1 F900 X84.538 Y60.143 E20.17707
G0 F2625 X84.538 Y60.497
G1 F900 X85.059 Y61.018 E20.18935
G0 F2625 X85.059 Y61.371
G1 F900 X84.538 Y60.85 E20.20162
G0 F2625 X84.538 Y61.204
G1 F900 X85.059 Y61.725 E20.21389
G0 F2625 X85.059 Y62.079
G1 F900 X84.538 Y61.557 E20.22617
G0 F2625 X84.538 Y61.911
G1 F900 X85.059 Y62.432 E20.23844
G0 F2625 X85.059 Y62.786
G1 F900 X84.538 Y62.264 E20.25073
G0 F2625 X84.538 Y62.618
G1 F900 X85.059 Y63.139 E20.263
G0 F2625 X85.059 Y63.493
G1 F900 X84.538 Y62.972 E20.27527
G0 F2625 X84.538 Y63.325
G1 F900 X85.059 Y63.846 E20.28754
G0 F2625 X85.059 Y64.2
G1 F900 X84.538 Y63.679 E20.29981
G0 F2625 X84.538 Y64.032
G1 F900 X85.059 Y64.553 E20.31209
G0 F2625 X85.059 Y64.907
G1 F900 X84.538 Y64.386 E20.32436
G0 F2625 X84.538 Y64.739
G1 F900 X85.059 Y65.261 E20.33664
G0 F2625 X85.059 Y65.614
G1 F900 X84.538 Y65.093 E20.34891
G0 F2625 X84.538 Y65.446
G1 F900 X85.059 Y65.968 E20.3612
G0 F2625 X85.059 Y66.321
G1 F900 X84.538 Y65.8 E20.37347
G0 F2625 X84.538 Y66.154
G1 F900 X85.059 Y66.675 E20.38574
G0 F2625 X85.059 Y67.028
G1 F900 X84.538 Y66.507 E20.39801
G0 F2625 X84.538 Y66.861
G1 F900 X85.059 Y67.382 E20.41028
G0 F2625 X85.059 Y67.735
G1 F900 X84.538 Y67.214 E20.42255
G0 F2625 X84.538 Y67.568
G1 F900 X85.059 Y68.089 E20.43483
G0 F2625 X85.059 Y68.442
G1 F900 X84.538 Y67.921 E20.4471
G0 F2625 X84.538 Y68.275
G1 F900 X85.059 Y68.796 E20.45937
G0 F2625 X85.059 Y69.15
G1 F900 X84.538 Y68.628 E20.47165
G0 F2625 X84.538 Y68.982
G1 F900 X85.059 Y69.503 E20.48392
G0 F2625 X85.059 Y69.857
G1 F900 X84.538 Y69.336 E20.4962
G0 F2625 X84.538 Y69.689
G1 F900 X85.059 Y70.21 E20.50847
G0 F2625 X85.059 Y70.564
G1 F900 X84.538 Y70.043 E20.52074
G0 F2625 X84.538 Y70.396
G1 F900 X85.059 Y70.917 E20.53301
G0 F2625 X85.059 Y71.271
G1 F900 X84.538 Y70.75 E20.54528
G0 F2625 X84.538 Y71.103
G1 F900 X85.059 Y71.624 E20.55755
G0 F2625 X85.059 Y71.978
G1 F900 X84.538 Y71.457 E20.56983
G0 F2625 X84.538 Y71.81
G1 F900 X85.059 Y72.332 E20.58211
G0 F2625 X85.059 Y72.685
G1 F900 X84.538 Y72.164 E20.59438
G0 F2625 X84.538 Y72.518
G1 F900 X85.059 Y73.039 E20.60665
G0 F2625 X85.059 Y73.392
G1 F900 X84.538 Y72.871 E20.61892
G0 F2625 X84.538 Y73.225
G1 F900 X85.059 Y73.746 E20.6312
G0 F2625 X85.059 Y74.099
G1 F900 X84.538 Y73.578 E20.64347
G0 F2625 X84.538 Y73.932
G1 F900 X85.059 Y74.453 E20.65574
G0 F2625 X85.059 Y74.806
G1 F900 X84.538 Y74.285 E20.66801
G0 F2625 X84.538 Y74.639
G1 F900 X85.059 Y75.16 E20.68028
G0 F2625 X85.059 Y75.514
G1 F900 X84.538 Y74.992 E20.69257
G0 F2625 X84.538 Y75.346
G1 F900 X85.059 Y75.867 E20.70484
G0 F2625 X85.059 Y76.221
G1 F900 X84.538 Y75.7 E20.71711
G0 F2625 X84.538 Y76.053
G1 F900 X85.059 Y76.574 E20.72938
G0 F2625 X85.059 Y76.928
G1 F900 X84.538 Y76.407 E20.74165
G0 F2625 X84.538 Y76.76
G1 F900 X85.059 Y77.281 E20.75392
G0 F2625 X85.059 Y77.635
G1 F900 X84.538 Y77.114 E20.7662
G0 F2625 X84.538 Y77.467
G1 F900 X85.059 Y77.988 E20.77847
G0 F2625 X85.059 Y78.342
G1 F900 X84.538 Y77.821 E20.79074
G0 F2625 X84.538 Y78.174
G1 F900 X85.059 Y78.696 E20.80302
G0 F2625 X85.059 Y79.049
G1 F900 X84.538 Y78.528 E20.81529
G0 F2625 X84.538 Y78.882
G1 F900 X85.059 Y79.403 E20.82757
G0 F2625 X85.059 Y79.756
G1 F900 X84.538 Y79.235 E20.83984
G0 F2625 X84.538 Y79.589
G1 F900 X85.059 Y80.11 E20.85211
G0 F2625 X85.059 Y80.463
G1 F900 X84.538 Y79.942 E20.86438
G0 F2625 X84.538 Y80.296
G1 F900 X85.059 Y80.817 E20.87665
G0 F2625 X85.059 Y81.17
G1 F900 X84.538 Y80.649 E20.88892
G0 F2625 X84.539 Y81.004
G1 F900 X85.059 Y81.524 E20.90117
G0 F2625 X85.059 Y81.878
G1 F900 X84.539 Y81.357 E20.91343
G0 F2625 X84.539 Y81.711
G1 F900 X85.059 Y82.231 E20.92568
G0 F2625 X85.059 Y82.585
G1 F900 X84.539 Y82.064 E20.93794
G0 F2625 X84.539 Y82.418
G1 F900 X85.059 Y82.938 E20.95019
G0 F2625 X85.059 Y83.292
G1 F900 X84.539 Y82.771 E20.96245
G0 F2625 X84.539 Y83.125
G1 F900 X85.059 Y83.645 E20.9747
G0 F2625 X85.059 Y83.999
G1 F900 X84.539 Y83.478 E20.98695
G0 F2625 X84.539 Y83.832
G1 F900 X85.059 Y84.352 E20.9992
G0 F2625 X85.059 Y84.706
G1 F900 X84.539 Y84.186 E21.01145
G0 F2625 X84.539 Y84.539
G1 F900 X85.059 Y85.059 E21.0237
G0 F2625 X85.059 Y85.413
G1 F900 X84.539 Y84.893 E21.03595
G0 F2625 X84.539 Y85.246
G1 F900 X85.059 Y85.767 E21.04821
G0 F2625 X85.059 Y86.12
G1 F900 X84.539 Y85.6 E21.06046
G0 F2625 X84.539 Y85.953
G1 F900 X85.059 Y86.474 E21.07271
G0 F2625 X85.059 Y86.827
G1 F900 X84.539 Y86.307 E21.08496
G0 F2625 X84.539 Y86.66
G1 F900 X85.059 Y87.181 E21.09722
G0 F2625 X85.059 Y87.534
G1 F900 X84.539 Y87.014 E21.10947
G0 F2625 X84.539 Y87.367
G1 F900 X85.059 Y87.888 E21.12173
G0 F2625 X85.059 Y88.241
G1 F900 X84.539 Y87.721 E21.13398
G0 F2625 X84.539 Y88.075
G1 F900 X85.059 Y88.595 E21.14623
G0 F2625 X85.059 Y88.949
G1 F900 X84.539 Y88.428 E21.15849
G0 F2625 X84.539 Y88.782
G1 F900 X85.059 Y89.302 E21.17073
G0 F2625 X85.059 Y89.656
G1 F900 X84.539 Y89.135 E21.18299
G0 F2625 X84.539 Y89.489
G1 F900 X85.059 Y90.009 E21.19524
G0 F2625 X85.059 Y90.363
G1 F900 X84.539 Y89.842 E21.2075
G0 F2625 X84.539 Y90.196
G1 F900 X85.059 Y90.716 E21.21975
G0 F2625 X85.059 Y91.07
G1 F900 X84.539 Y90.549 E21.23201
G0 F2625 X84.539 Y90.903
G1 F900 X85.059 Y91.423 E21.24426
G0 F2625 X85.059 Y91.777
G1 F900 X84.539 Y91.257 E21.25651
G0 F2625 X84.539 Y91.61
G1 F900 X85.059 Y92.131 E21.26877
G0 F2625 X85.059 Y92.484
G1 F900 X84.539 Y91.964 E21.28101
G0 F2625 X84.539 Y92.317
G1 F900 X85.059 Y92.838 E21.29327
G0 F2625 X85.059 Y93.191
G1 F900 X84.539 Y92.671 E21.30552
G0 F2625 X84.539 Y93.024
G1 F900 X85.059 Y93.545 E21.31778
G0 F2625 X85.059 Y93.898
G1 F900 X84.539 Y93.378 E21.33003
G0 F2625 X84.539 Y93.731
G1 F900 X85.059 Y94.252 E21.34229
G0 F2625 X85.059 Y94.605
G1 F900 X84.539 Y94.085 E21.35454
G0 F2625 X84.539 Y94.439
G1 F900 X85.059 Y94.959 E21.36679
G0 F2625 X85.059 Y95.313
G1 F900 X84.539 Y94.792 E21.37905
G0 F2625 X84.539 Y95.146
G1 F900 X85.059 Y95.666 E21.39129
G0 F2625 X85.059 Y96.02
G1 F900 X84.539 Y95.499 E21.40355
G0 F2625 X84.539 Y95.853
G1 F900 X85.059 Y96.373 E21.4158
G0 F2625 X85.059 Y96.727
G1 F900 X84.539 Y96.206 E21.42806
G0 F2625 X84.539 Y96.56
G1 F900 X85.059 Y97.08 E21.44031
G0 F2625 X85.059 Y97.434
G1 F900 X84.539 Y96.913 E21.45257
G0 F2625 X84.539 Y97.267
G1 F900 X85.059 Y97.787 E21.46482
G0 F2625 X85.059 Y98.141
G1 F900 X84.539 Y97.621 E21.47707
G0 F2625 X84.539 Y97.974
G1 F900 X85.059 Y98.495 E21.48933
G0 F2625 X85.059 Y98.848
G1 F900 X84.539 Y98.328 E21.50157
G0 F2625 X84.539 Y98.681
G1 F900 X85.059 Y99.202 E21.51383
G0 F2625 X85.059 Y99.555
G1 F900 X84.539 Y99.035 E21.52608
G0 F2625 X84.539 Y99.388
G1 F900 X85.059 Y99.909 E21.53834
G0 F2625 X85.059 Y100.262
G1 F900 X84.539 Y99.742 E21.55059
G0 F2625 X84.539 Y100.095
G1 F900 X85.059 Y100.616 E21.56285
G0 F2625 X85.059 Y100.969
G1 F900 X84.539 Y100.449 E21.5751
G0 F2625 X84.539 Y100.803
G1 F900 X85.059 Y101.323 E21.58735
G0 F2625 X85.059 Y101.677
G1 F900 X84.539 Y101.156 E21.59961
G0 F2625 X84.539 Y101.51
G1 F900 X85.059 Y102.03 E21.61185
G0 F2625 X85.059 Y102.384
G1 F900 X84.539 Y101.863 E21.62411
G0 F2625 X84.539 Y102.217
G1 F900 X85.059 Y102.737 E21.63636
G0 F2625 X85.059 Y103.091
G1 F900 X84.539 Y102.57 E21.64862
G0 F2625 X84.539 Y102.924
G1 F900 X85.059 Y103.444 E21.66087
G0 F2625 X85.059 Y103.798
G1 F900 X84.539 Y103.277 E21.67313
G0 F2625 X84.539 Y103.631
G1 F900 X85.059 Y104.151 E21.68538
G0 F2625 X85.059 Y104.505
G1 F900 X84.539 Y103.985 E21.69763
G0 F2625 X84.539 Y104.338
G1 F900 X85.059 Y104.858 E21.70987
G0 F2625 X85.059 Y105.212
G1 F900 X84.539 Y104.692 E21.72212
G0 F2625 X84.539 Y105.045
G1 F900 X85.059 Y105.566 E21.73438
G0 F2625 X85.059 Y105.919
G1 F900 X84.539 Y105.399 E21.74663
G0 F2625 X84.539 Y105.752
G1 F900 X85.059 Y106.273 E21.75889
